actions/22x22-light/document-page-setup.svg

<svg xmlns="http://www.w3.org/2000/svg" viewBox="0 0 22 22">
 <defs id="defs3051">
   <style type="text/css" id="current-color-scheme">
     .ColorScheme-Text {
       color:#4d4d4d;
     }
     </style>
 </defs>
   <path
      style="fill:currentColor;fill-opacity:1;stroke:none"
      d="m9.84375 3c-.2013728 0-.3264148.096547-.375.2910156-.0902662.3471285-.1916277.9930294-.3027344 1.9375-.3264158.1043303-.6416903.2367925-.9472656.3964844l-1.4375-1.1152344c-.0902662-.0694257-.1812182-.1035156-.2714844-.1035156-.1527876 0-.4808789.2475488-.984375.7441406-.503496.4965919-.8447304.8711357-1.0253906 1.1210938-.0625215.0902662-.09375.1688555-.09375.2382812 0 .083362.03409.1667659.1035156.25.4652672.5625654.8374038 1.0415307 1.1152344 1.4375-.1736281.3193838-.3090796.6396007-.40625.9589844l-1.9375.2910156c-.0763299.0139363-.1416484.060261-.1972656.1367188-.0556173.0763299-.0839844.1550471-.0839844.2382812v2.3125004c0 .09039.0283674.173216.0839844.246093.055617.07301.1284838.115098.21875.128907l1.90625.28125c.09717.340224.2382168.684121.4257812 1.03125-.1249151.173628-.3125419.418315-.5625.734375-.249958.316059-.4271754.547476-.53125.693359-.055617.07659-.0820312.156872-.0820312.240234 0 .09027.0236796.168856.0722656.238282.2707985.375128.8437051.958445 1.71875 1.75.076458.07646.1625952.115234.2597656.115234.1042025 0 .1922931-.03136.2617188-.09375l1.46875-1.115234c.2848626.145883.5972758.275484.9375.386718l.2910156 1.916016c.00703.09027.046263.16554.1191406.224609.0728778.059198.158689.087891.2558594.087891h2.3125c.201629 0 .326287-.09655.375-.291016.09014-.347256.191628-.993029.302734-1.9375.326416-.104202.641819-.236792.947266-.396484l1.4375 1.125c.09717.06239.18825.09375.271484.09375.15266 0 .4786-.247095.978516-.740234.500172-.493012.843941-.86801 1.03125-1.125.06252-.06943.09375-.148015.09375-.238282 0-.09027-.03396-.178612-.103516-.261718-.499916-.611151-.872052-1.090244-1.115234-1.4375.138851-.25699.274303-.572265.40625-.947266l1.927734-.291016c.08323-.01394.151542-.06026.207032-.136718.055489-.076458.083984-.155048.083984-.238282v-2.3124996c.000128-.090266-.028244-.1730881-.083984-.2460938-.05574-.073006-.128484-.1150978-.21875-.1289062l-1.90625-.2929688c-.104203-.33332-.245249-.6722749-.425782-1.0195312.124915-.1736282.312542-.4183155.5625-.734375s.427048-.547476.53125-.6933594c.05562-.076458.082032-.1568724.082032-.2402344 0-.09717-.023546-.1728983-.072266-.2285156-.249956-.3542884-.822865-.9450245-1.71875-1.7714844-.083106-.0694257-.169627-.1035156-.259766-.1035156-.104202 0-.187478.031356-.25.09375l-1.480468 1.1152344c-.284863-.1458835-.597276-.2756121-.9375-.3867188l-.291016-1.9160156c-.006904-.0902662-.046263-.16554-.119141-.2246094-.073005-.0590693-.158433-.0878906-.255859-.0878906zm1.15625 5.3339844c.736194 0 1.364009.2604934 1.884766.78125.520756.5208844.78125 1.1485716.78125 1.8847656s-.260494 1.364009-.78125 1.884766c-.520757.520884-1.148572.78125-1.884766.78125s-1.3638812-.260366-1.8847656-.78125c-.5207566-.520757-.78125-1.148572-.78125-1.884766s.2603655-1.3638812.78125-1.8847656c.5208844-.5207566 1.1486996-.78125 1.8847656-.78125z"
      class="ColorScheme-Text" 
       transform="matrix(.999999997526 0 0 .999999997526 .000000051123 .000000166601)"/>
</svg>

<svg xmlns="http://www.w3.org/2000/svg" viewBox="0 0 22 22">
  <defs id="defs3051">
    <style type="text/css" id="current-color-scheme">
      .ColorScheme-Text {
        color:#4d4d4d
      }
      </style>
  </defs>
  <g
     id="cog2"
     transform="matrix(0.12785578,0,0,0.12785578,2.9452779,2.9451888)">
    <path
       style="fill:currentColor;fill-opacity:1;stroke:none"
	 class="ColorScheme-Text"
       d="M 9.84375 3 C 9.6423772 3 9.5173352 3.096547 9.46875 3.2910156 C 9.3784838 3.6381441 9.2771223 4.284045 9.1660156 5.2285156 C 8.8395998 5.3328459 8.5243253 5.4653081 8.21875 5.625 L 6.78125 4.5097656 C 6.6909838 4.4403399 6.6000318 4.40625 6.5097656 4.40625 C 6.356978 4.40625 6.0288867 4.6537988 5.5253906 5.1503906 C 5.0218946 5.6469825 4.6806602 6.0215263 4.5 6.2714844 C 4.4374785 6.3617506 4.40625 6.4403399 4.40625 6.5097656 C 4.40625 6.5931276 4.44034 6.6765315 4.5097656 6.7597656 C 4.9750328 7.322331 5.3471694 7.8012963 5.625 8.1972656 C 5.4513719 8.5166494 5.3159204 8.8368663 5.21875 9.15625 L 3.28125 9.4472656 C 3.2049201 9.4612019 3.1396016 9.5075266 3.0839844 9.5839844 C 3.0283671 9.6603143 3 9.7390315 3 9.8222656 L 3 12.134766 C 3 12.225156 3.0283674 12.307982 3.0839844 12.380859 C 3.1396014 12.453869 3.2124682 12.495957 3.3027344 12.509766 L 5.2089844 12.791016 C 5.3061544 13.13124 5.4472012 13.475137 5.6347656 13.822266 C 5.5098505 13.995894 5.3222237 14.240581 5.0722656 14.556641 C 4.8223076 14.8727 4.6450902 15.104117 4.5410156 15.25 C 4.4853986 15.32659 4.4589844 15.406872 4.4589844 15.490234 C 4.4589844 15.580504 4.482664 15.65909 4.53125 15.728516 C 4.8020485 16.103644 5.3749551 16.686961 6.25 17.478516 C 6.326458 17.554976 6.4125952 17.59375 6.5097656 17.59375 C 6.6139681 17.59375 6.7020587 17.56239 6.7714844 17.5 L 8.2402344 16.384766 C 8.525097 16.530649 8.8375102 16.66025 9.1777344 16.771484 L 9.46875 18.6875 C 9.47578 18.77777 9.515013 18.85304 9.5878906 18.912109 C 9.6607684 18.971307 9.7465796 19 9.84375 19 L 12.15625 19 C 12.357879 19 12.482537 18.90345 12.53125 18.708984 C 12.62139 18.361728 12.722878 17.715955 12.833984 16.771484 C 13.1604 16.667282 13.475803 16.534692 13.78125 16.375 L 15.21875 17.5 C 15.31592 17.56239 15.407 17.59375 15.490234 17.59375 C 15.642894 17.59375 15.968834 17.346655 16.46875 16.853516 C 16.968922 16.360504 17.312691 15.985506 17.5 15.728516 C 17.56252 15.659086 17.59375 15.580501 17.59375 15.490234 C 17.59375 15.399964 17.55979 15.311622 17.490234 15.228516 C 16.990318 14.617365 16.618182 14.138272 16.375 13.791016 C 16.513851 13.534026 16.649303 13.218751 16.78125 12.84375 L 18.708984 12.552734 C 18.792214 12.538794 18.860526 12.492474 18.916016 12.416016 C 18.971505 12.339558 19 12.260968 19 12.177734 L 19 9.8652344 C 19.000128 9.7749684 18.971756 9.6921463 18.916016 9.6191406 C 18.860276 9.5461346 18.787532 9.5040428 18.697266 9.4902344 L 16.791016 9.1972656 C 16.686813 8.8639456 16.545767 8.5249907 16.365234 8.1777344 C 16.490149 8.0041062 16.677776 7.7594189 16.927734 7.4433594 C 17.177692 7.1272999 17.354782 6.8958834 17.458984 6.75 C 17.514604 6.673542 17.541016 6.5931276 17.541016 6.5097656 C 17.541016 6.4125956 17.51747 6.3368673 17.46875 6.28125 C 17.218794 5.9269616 16.645885 5.3362255 15.75 4.5097656 C 15.666894 4.4403399 15.580373 4.40625 15.490234 4.40625 C 15.386032 4.40625 15.302756 4.437606 15.240234 4.5 L 13.759766 5.6152344 C 13.474903 5.4693509 13.16249 5.3396223 12.822266 5.2285156 L 12.53125 3.3125 C 12.524346 3.2222338 12.484987 3.14696 12.412109 3.0878906 C 12.339104 3.0288213 12.253676 3 12.15625 3 L 9.84375 3 z M 11 8.3339844 C 11.736194 8.3339844 12.364009 8.5944778 12.884766 9.1152344 C 13.405522 9.6361188 13.666016 10.263806 13.666016 11 C 13.666016 11.736194 13.405522 12.364009 12.884766 12.884766 C 12.364009 13.40565 11.736194 13.666016 11 13.666016 C 10.263806 13.666016 9.6361188 13.40565 9.1152344 12.884766 C 8.5944778 12.364009 8.3339844 11.736194 8.3339844 11 C 8.3339844 10.263806 8.5943499 9.6361188 9.1152344 9.1152344 C 9.6361188 8.5944778 10.263934 8.3339844 11 8.3339844 z "
       transform="matrix(7.8213124,0,0,7.8213124,-23.035939,-23.035242)"
       id="path4463" />
  </g>
</svg>
